www/assets/icons/pix.svg

<svg width="24" height="24" viewBox="0 0 24 24" xmlns="http://www.w3.org/2000/svg" fill='currentColor'><path d="M15.4462 16.5199L12.4362 13.5099C12.3262 13.3999 12.1962 13.3799 12.1262 13.3799C12.0562 13.3799 11.9262 13.3999 11.8162 13.5099L8.79622 16.5299C8.45622 16.8699 7.92622 17.4199 6.15622 17.4199L9.86622 21.1199C11.0362 22.2899 12.9362 22.2899 14.1062 21.1199L17.8262 17.4099C16.9162 17.4099 16.1562 17.2299 15.4462 16.5199Z"/><path d="M8.79622 7.46994L11.8162 10.4899C11.8962 10.5699 12.0162 10.6199 12.1262 10.6199C12.2362 10.6199 12.3562 10.5699 12.4362 10.4899L15.4262 7.49994C16.1362 6.75994 16.9462 6.58994 17.8562 6.58994L14.1362 2.87994C12.9662 1.70994 11.0662 1.70994 9.89622 2.87994L6.18622 6.57994C7.94622 6.57994 8.48622 7.15994 8.79622 7.46994Z"/><path d="M21.1062 9.84994L18.8562 7.58994H17.5962C17.0562 7.58994 16.5162 7.80994 16.1462 8.19994L13.1462 11.1999C12.8662 11.4799 12.4962 11.6199 12.1262 11.6199C11.7662 11.6199 11.3862 11.4699 11.1062 11.1999L8.08622 8.16994C7.70622 7.78994 7.18622 7.56994 6.63622 7.56994H5.16622L2.87622 9.86994C1.70622 11.0399 1.70622 12.9399 2.87622 14.1099L5.16622 16.4099H6.64622C7.18622 16.4099 7.70622 16.1899 8.09622 15.8099L11.1162 12.7899C11.3962 12.5099 11.7662 12.3699 12.1362 12.3699C12.5062 12.3699 12.8762 12.5099 13.1562 12.7899L16.1662 15.7999C16.5462 16.1799 17.0662 16.3999 17.6162 16.3999H18.8762L21.1262 14.1399C22.2962 12.9599 22.2962 11.0399 21.1062 9.84994Z"/></svg>

<svg xmlns="http://www.w3.org/2000/svg" width="24" height="24" viewBox="0 0 24 24" fill='currentColor'><path d="m15.446 16.52-3.01-3.01a.44.44 0 0 0-.31-.13c-.07 0-.2.02-.31.13l-3.02 3.02c-.34.34-.87.89-2.64.89l3.71 3.7a3 3 0 0 0 4.24 0l3.72-3.71c-.91 0-1.67-.18-2.38-.89m-6.65-9.05 3.02 3.02c.08.08.2.13.31.13s.23-.05.31-.13l2.99-2.99c.71-.74 1.52-.91 2.43-.91l-3.72-3.71a3 3 0 0 0-4.24 0l-3.71 3.7c1.76 0 2.3.58 2.61.89"/><path d="m21.106 9.85-2.25-2.26h-1.26c-.54 0-1.08.22-1.45.61l-3 3c-.28.28-.65.42-1.02.42a1.5 1.5 0 0 1-1.02-.42l-3.02-3.03c-.38-.38-.9-.6-1.45-.6h-1.47l-2.29 2.3a3 3 0 0 0 0 4.24l2.29 2.3h1.48c.54 0 1.06-.22 1.45-.6l3.02-3.02c.28-.28.65-.42 1.02-.42s.74.14 1.02.42l3.01 3.01c.38.38.9.6 1.45.6h1.26l2.25-2.26a3.04 3.04 0 0 0-.02-4.29"/></svg>
